Pictures/vector-logo.svg

<svg width="50" height="50" viewBox="0 0 50 50" fill="none" xmlns="http://www.w3.org/2000/svg">
<g id="Group 3 Copy 4">
<rect id="Rectangle" width="50" height="50" rx="15" fill="#34353F"/>
<g id="VECTOR 2">
<path id="VECTOR" fill-rule="evenodd" clip-rule="evenodd" d="M21.6518 26C22.2075 26 22.6674 25.9529 23.0315 25.8588C23.3956 25.7647 23.6712 25.6235 23.8584 25.4353C24.0455 25.2471 24.1464 25.0132 24.161 24.7338H23.0205C22.9854 24.8103 22.9211 24.8816 22.8275 24.9478C22.7339 25.014 22.5942 25.0662 22.4085 25.1044C22.2228 25.1426 21.9706 25.1618 21.6518 25.1618C21.2775 25.1618 20.9734 25.1397 20.7394 25.0956C20.5054 25.0515 20.3344 24.9824 20.2261 24.8882C20.1179 24.7941 20.0638 24.6721 20.0638 24.5221C20.0638 24.3574 20.1179 24.225 20.2261 24.125C20.3344 24.025 20.5054 23.9522 20.7394 23.9066C20.9734 23.861 21.2775 23.8382 21.6518 23.8382C21.9706 23.8382 22.2236 23.8588 22.4107 23.9C22.5979 23.9412 22.7383 23.9978 22.8319 24.0699C22.9254 24.1419 22.9898 24.225 23.0249 24.3191H24.1654C24.1508 24.0368 24.0499 23.7971 23.8627 23.6C23.6756 23.4029 23.3992 23.2537 23.0337 23.1522C22.6681 23.0507 22.2075 23 21.6518 23C21.2278 23 20.8476 23.025 20.5113 23.075C20.175 23.125 19.8884 23.2081 19.6515 23.3243C19.4146 23.4404 19.2333 23.5963 19.1075 23.7919C18.9818 23.9875 18.9189 24.2309 18.9189 24.5221C18.9189 24.8132 18.9818 25.0544 19.1075 25.2456C19.2333 25.4368 19.4146 25.5875 19.6515 25.6978C19.8884 25.8081 20.175 25.886 20.5113 25.9316C20.8476 25.9772 21.2278 26 21.6518 26ZM10.9131 23.0882L9.22863 25.9118H7.70205L6 23.0882H7.23706L8.46534 25.3835L9.69362 23.0882H10.9131ZM17.1094 25.0735V25.9118H12.6788V23.0882H17.1006V23.9265H13.7755V24.2794H16.4952V24.7206H13.7755V25.0735H17.1094ZM28.6728 23.9265V25.9118H27.5761V23.9265H25.8433V23.0882H30.4055V23.9265H28.6728ZM34.6058 26C35.2434 26 35.7566 25.9434 36.1456 25.8301C36.5345 25.7169 36.8175 25.5493 36.9944 25.3272C37.1713 25.1051 37.2598 24.8294 37.2598 24.5C37.2598 24.1706 37.1713 23.8949 36.9944 23.6728C36.8175 23.4507 36.5345 23.2831 36.1456 23.1699C35.7566 23.0566 35.2434 23 34.6058 23C33.9683 23 33.455 23.0566 33.0661 23.1699C32.6771 23.2831 32.3942 23.4507 32.2173 23.6728C32.0403 23.8949 31.9519 24.1706 31.9519 24.5C31.9519 24.8294 32.0403 25.1051 32.2173 25.3272C32.3942 25.5493 32.6771 25.7169 33.0661 25.8301C33.455 25.9434 33.9683 26 34.6058 26ZM33.814 25.1066C34.0407 25.1434 34.3046 25.1618 34.6058 25.1618C34.9071 25.1618 35.1673 25.1434 35.3867 25.1066C35.606 25.0699 35.7756 25.0037 35.8955 24.9081C36.0154 24.8125 36.0754 24.6765 36.0754 24.5C36.0754 24.3235 36.0154 24.1875 35.8955 24.0919C35.7756 23.9963 35.606 23.9301 35.3867 23.8934C35.1673 23.8566 34.9071 23.8382 34.6058 23.8382C34.3046 23.8382 34.0407 23.8566 33.814 23.8934C33.5874 23.9301 33.4104 23.9963 33.2832 24.0919C33.156 24.1875 33.0924 24.3235 33.0924 24.5C33.0924 24.6765 33.156 24.8125 33.2832 24.9081C33.4104 25.0037 33.5874 25.0699 33.814 25.1066ZM40.2976 25.9118V25.1176H42.0128C42.2468 25.1176 42.42 25.1265 42.5326 25.1441C42.6452 25.1618 42.7183 25.1934 42.752 25.239C42.7856 25.2846 42.8024 25.3515 42.8024 25.4397V25.9118H43.8991V25.3074C43.8991 25.1779 43.8618 25.0787 43.7872 25.0096C43.7127 24.9404 43.5811 24.8926 43.3924 24.8662C43.3581 24.8614 43.3212 24.8569 43.2816 24.8529L43.243 24.8494L43.3201 24.8353C43.4253 24.8141 43.5213 24.7826 43.6078 24.7407L43.671 24.7074C43.7734 24.6485 43.8538 24.5662 43.9123 24.4603C43.9708 24.3544 44 24.2206 44 24.0588C44 23.8147 43.9379 23.6221 43.8136 23.4809C43.6893 23.3397 43.5211 23.239 43.3091 23.1787C43.0971 23.1184 42.858 23.0882 42.5919 23.0882H39.2009V25.9118H40.2976ZM40.2976 24.3809H42.5919C42.6796 24.3809 42.7534 24.3662 42.8134 24.3368C42.8733 24.3074 42.9033 24.2515 42.9033 24.1691C42.9033 24.0926 42.8733 24.0404 42.8134 24.0125C42.7534 23.9846 42.6796 23.9706 42.5919 23.9706H40.2976V24.3809Z" fill="white"/>
</g>
</g>
</svg>

<svg xmlns="http://www.w3.org/2000/svg" width="50" height="50" fill="none"><rect width="50" height="50" fill="#34353F" rx="15"/><path fill="#fff" fill-rule="evenodd" d="M21.652 26c.555 0 1.015-.047 1.38-.141.364-.094.64-.236.826-.424.188-.188.288-.422.303-.701h-1.14a.556.556 0 0 1-.194.214 1.133 1.133 0 0 1-.419.156 3.93 3.93 0 0 1-.756.058c-.375 0-.679-.022-.913-.066-.234-.044-.405-.114-.513-.208a.462.462 0 0 1-.162-.366c0-.165.054-.297.162-.397.108-.1.28-.173.513-.218.234-.046.538-.069.913-.069.319 0 .572.02.759.062.187.041.327.098.42.17a.565.565 0 0 1 .194.25h1.14a1.092 1.092 0 0 0-.302-.72c-.187-.197-.464-.346-.83-.448-.365-.101-.826-.152-1.381-.152-.424 0-.804.025-1.14.075-.337.05-.624.133-.86.25a1.316 1.316 0 0 0-.544.467c-.126.195-.19.439-.19.73s.064.532.19.724c.125.19.307.341.543.452.237.11.524.188.86.234.337.045.717.068 1.14.068Zm-10.739-2.912L9.23 25.912H7.702L6 23.088h1.237l1.228 2.296 1.229-2.296h1.22Zm6.196 1.985v.839h-4.43v-2.824H17.1v.838h-3.325v.353h2.72v.442h-2.72v.352h3.333Zm11.564-1.146v1.985h-1.097v-1.985h-1.733v-.839h4.563v.838h-1.733ZM34.606 26c.637 0 1.15-.057 1.54-.17.389-.113.672-.28.848-.503.177-.222.266-.498.266-.827 0-.33-.089-.605-.266-.827-.176-.222-.46-.39-.848-.503-.39-.113-.903-.17-1.54-.17-.638 0-1.151.057-1.54.17-.389.113-.672.28-.849.503-.177.222-.265.498-.265.827 0 .33.088.605.265.827.177.222.46.39.85.503.388.113.901.17 1.539.17Zm-.792-.893c.227.036.49.055.792.055.301 0 .561-.019.78-.055.22-.037.39-.103.51-.199a.492.492 0 0 0 .18-.408.492.492 0 0 0-.18-.408c-.12-.096-.29-.162-.51-.199a4.789 4.789 0 0 0-.78-.055c-.301 0-.565.019-.792.055-.227.037-.404.103-.53.199a.48.48 0 0 0-.192.408.48.48 0 0 0 .191.408c.127.096.304.162.531.199Zm6.484.805v-.794h1.715c.234 0 .407.009.52.026.112.018.185.05.219.095.034.046.05.113.05.2v.473H43.9v-.605c0-.13-.037-.228-.112-.297-.074-.07-.206-.117-.395-.144a2.908 2.908 0 0 0-.11-.013l-.039-.004.077-.014c.105-.02.201-.052.288-.094l.063-.034a.63.63 0 0 0 .241-.247.823.823 0 0 0 .088-.401c0-.244-.062-.437-.186-.578a1.027 1.027 0 0 0-.505-.302 2.622 2.622 0 0 0-.717-.09H39.2v2.823h1.097Zm0-1.531h2.294a.5.5 0 0 0 .221-.044c.06-.03.09-.085.09-.168 0-.076-.03-.129-.09-.157a.524.524 0 0 0-.221-.041h-2.294v.41Z" clip-rule="evenodd"/></svg>
